_includes/icons/color-android.svg

<svg fill="#666" height="50" viewBox="0 0 48 48" width="50" xmlns="http://www.w3.org/2000/svg"><path d="m12 40v-32c0-2.199219 1.800781-4 4-4h16c2.199219 0 4 1.800781 4 4v32c0 2.199219-1.800781 4-4 4h-16c-2.199219 0-4-1.800781-4-4z" fill="#37474f"/><path d="m32 7h-16c-.601562 0-1 .398438-1 1v29c0 .601563.398438 1 1 1h16c.601563 0 1-.398437 1-1v-29c0-.601562-.398437-1-1-1z" fill="#bbdefb"/><path d="m21 40h6v2h-6z" fill="#78909c"/></svg>

<svg xmlns="http://www.w3.org/2000/svg" viewBox="0 0 48 48" width="50" height="50" fill="#666"><path d="M 12 40 L 12 8 C 12 5.800781 13.800781 4 16 4 L 32 4 C 34.199219 4 36 5.800781 36 8 L 36 40 C 36 42.199219 34.199219 44 32 44 L 16 44 C 13.800781 44 12 42.199219 12 40 Z" fill="#37474f"/><path d="M 32 7 L 16 7 C 15.398438 7 15 7.398438 15 8 L 15 37 C 15 37.601563 15.398438 38 16 38 L 32 38 C 32.601563 38 33 37.601563 33 37 L 33 8 C 33 7.398438 32.601563 7 32 7 Z" fill="#bbdefb"/><path d="M 21 40 L 27 40 L 27 42 L 21 42 Z" fill="#78909c"/></svg>
